components/ui-node-icon/src/csvFile/csvFile.large.svg

<svg width="32" height="32" viewBox="0 0 32 32" fill="none" xmlns="http://www.w3.org/2000/svg">
  <path fill-rule="evenodd" clip-rule="evenodd" d="M5 7C5 4.79086 6.79086 3 9 3H23L23.0079 3.00001H21L27 9.00001L27 25C27 27.2091 25.2091 29 23 29H9C6.79086 29 5 27.2091 5 25V7ZM13.2577 18.0895C13.239 18.3832 13.1749 18.6475 13.0654 18.8825C12.9586 19.1175 12.8144 19.3178 12.6328 19.4833C12.4513 19.6489 12.235 19.777 11.984 19.8678C11.733 19.9559 11.4553 20 11.1509 20C10.8064 20 10.5007 19.9373 10.2336 19.8117C9.96662 19.6836 9.74232 19.506 9.56075 19.279C9.37917 19.0494 9.24032 18.7744 9.14419 18.4539C9.04806 18.1335 9 17.781 9 17.3965V16.6115C9 16.2243 9.05073 15.8705 9.1522 15.5501C9.25367 15.2296 9.39786 14.9546 9.58478 14.725C9.7717 14.4953 9.99733 14.3178 10.2617 14.1923C10.5287 14.0641 10.8278 14 11.1589 14C11.4793 14 11.7637 14.0454 12.012 14.1362C12.263 14.227 12.4766 14.3565 12.6529 14.5247C12.8291 14.6929 12.968 14.8985 13.0694 15.1415C13.1709 15.3845 13.235 15.6582 13.2617 15.9626H12.1402C12.1295 15.7891 12.1028 15.6368 12.0601 15.506C12.02 15.3752 11.9599 15.267 11.8798 15.1816C11.8024 15.0935 11.7036 15.028 11.5834 14.9853C11.466 14.9399 11.3244 14.9172 11.1589 14.9172C10.9853 14.9172 10.8344 14.9546 10.7063 15.0294C10.5781 15.1041 10.4713 15.2136 10.3858 15.3578C10.3031 15.502 10.2417 15.6796 10.2016 15.8905C10.1615 16.0988 10.1415 16.3364 10.1415 16.6035V17.3965C10.1415 17.9706 10.2216 18.3952 10.3818 18.6702C10.5447 18.9453 10.8011 19.0828 11.1509 19.0828C11.4446 19.0828 11.6769 19.0053 11.8478 18.8505C12.0187 18.6929 12.1135 18.4393 12.1322 18.0895H13.2577ZM17.1629 18.3939C17.1629 18.2897 17.1442 18.1923 17.1068 18.1015C17.0721 18.0107 17.0107 17.9266 16.9226 17.8491C16.8371 17.769 16.7236 17.6969 16.5821 17.6328C16.4433 17.5661 16.2697 17.5047 16.0614 17.4486C15.8077 17.3792 15.5648 17.2924 15.3324 17.1883C15.1028 17.0841 14.8999 16.9586 14.7236 16.8117C14.5474 16.6649 14.4059 16.494 14.2991 16.2991C14.1949 16.1041 14.1429 15.8798 14.1429 15.6262C14.1429 15.3805 14.1949 15.1575 14.2991 14.9573C14.4032 14.757 14.5474 14.5861 14.7316 14.4446C14.9159 14.3031 15.1335 14.1949 15.3845 14.1202C15.6355 14.0427 15.9079 14.004 16.2016 14.004C16.506 14.004 16.7837 14.0481 17.0347 14.1362C17.2884 14.2243 17.506 14.3485 17.6876 14.5087C17.8692 14.6662 18.0107 14.8545 18.1121 15.0734C18.2136 15.2924 18.2644 15.5327 18.2644 15.7944H17.1669C17.1615 15.6636 17.1375 15.5434 17.0948 15.4339C17.0547 15.3244 16.9933 15.231 16.9105 15.1535C16.8304 15.0734 16.729 15.012 16.6061 14.9693C16.486 14.9239 16.3445 14.9012 16.1816 14.9012C16.032 14.9012 15.8985 14.9199 15.781 14.9573C15.6662 14.992 15.5688 15.0427 15.4887 15.1095C15.4085 15.1736 15.3471 15.251 15.3044 15.3418C15.2644 15.4299 15.2443 15.526 15.2443 15.6302C15.2443 15.7397 15.271 15.8385 15.3244 15.9266C15.3805 16.0147 15.4606 16.0948 15.5648 16.1669C15.6689 16.2363 15.7944 16.3004 15.9413 16.3591C16.0908 16.4179 16.259 16.4726 16.4459 16.5234C16.713 16.6008 16.9586 16.6956 17.1829 16.8077C17.4072 16.9199 17.5995 17.0534 17.7597 17.2083C17.9226 17.3605 18.0481 17.5354 18.1362 17.733C18.227 17.9279 18.2724 18.1455 18.2724 18.3858C18.2724 18.6422 18.2203 18.8705 18.1162 19.0708C18.0147 19.2684 17.8732 19.4366 17.6916 19.5754C17.51 19.7116 17.2937 19.8158 17.0427 19.8879C16.7917 19.9573 16.518 19.992 16.2216 19.992C16.0374 19.992 15.8531 19.9746 15.6689 19.9399C15.4873 19.9079 15.3124 19.8571 15.1442 19.7877C14.9786 19.7183 14.8238 19.6315 14.6796 19.5274C14.5354 19.4232 14.4099 19.3017 14.3031 19.1629C14.1989 19.024 14.1162 18.8665 14.0547 18.6903C13.996 18.514 13.9666 18.3191 13.9666 18.1055H15.0721C15.0774 18.2817 15.1081 18.4326 15.1642 18.5581C15.2203 18.6836 15.2977 18.7864 15.3965 18.8665C15.498 18.9466 15.6182 19.0053 15.757 19.0427C15.8985 19.0801 16.0534 19.0988 16.2216 19.0988C16.3712 19.0988 16.5033 19.0814 16.6182 19.0467C16.7356 19.012 16.8344 18.964 16.9146 18.9025C16.9947 18.8411 17.0561 18.7677 17.0988 18.6822C17.1415 18.5941 17.1629 18.498 17.1629 18.3939ZM22.0935 14.0841L20.992 18.2857L19.9025 14.0841H18.6609L20.4232 19.9159H21.5688L23.3351 14.0841H22.0935Z" fill="var(--tbl--colors--icons--transformation--primary)"/>
  <path d="M21 7V3L27 9H23C21.8954 9 21 8.10457 21 7Z" fill="white" fill-opacity="0.5"/>
</svg>

<svg xmlns="http://www.w3.org/2000/svg" width="32" height="32" fill="none" viewBox="0 0 32 32">
  <path fill="var(--tbl--colors--icons--transformation--primary)" fill-rule="evenodd" d="M5 7a4 4 0 0 1 4-4h14.008H21l6 6v16a4 4 0 0 1-4 4H9a4 4 0 0 1-4-4V7Zm8.258 11.09a2.191 2.191 0 0 1-.193.793 1.822 1.822 0 0 1-1.081.985 2.502 2.502 0 0 1-.833.132c-.345 0-.65-.063-.917-.188a1.905 1.905 0 0 1-.673-.533 2.448 2.448 0 0 1-.417-.825A3.668 3.668 0 0 1 9 17.396v-.785c0-.387.05-.74.152-1.06.102-.321.246-.596.433-.826a1.93 1.93 0 0 1 .677-.533c.267-.128.566-.192.897-.192.32 0 .605.045.853.136.251.091.465.22.64.389.177.168.316.373.417.617.102.242.166.516.193.82H12.14a1.843 1.843 0 0 0-.08-.456.815.815 0 0 0-.18-.324.696.696 0 0 0-.297-.197 1.179 1.179 0 0 0-.424-.068.882.882 0 0 0-.453.112.901.901 0 0 0-.32.329 1.71 1.71 0 0 0-.184.532c-.04.209-.06.446-.06.713v.793c0 .575.08 1 .24 1.274.163.275.42.413.769.413.294 0 .526-.078.697-.232.17-.158.265-.412.284-.761h1.126Zm3.905.304a.76.76 0 0 0-.056-.292.646.646 0 0 0-.184-.253 1.248 1.248 0 0 0-.34-.216 3.05 3.05 0 0 0-.522-.184 5.02 5.02 0 0 1-.729-.26 2.665 2.665 0 0 1-.608-.377 1.77 1.77 0 0 1-.425-.513 1.406 1.406 0 0 1-.156-.673c0-.245.052-.468.156-.669.104-.2.248-.37.433-.512.184-.142.402-.25.652-.325.252-.077.524-.116.818-.116.304 0 .582.044.833.132.253.088.471.213.653.373a1.666 1.666 0 0 1 .576 1.285h-1.097a1.112 1.112 0 0 0-.072-.36.788.788 0 0 0-.489-.465 1.2 1.2 0 0 0-.424-.068c-.15 0-.283.019-.401.056a.82.82 0 0 0-.292.152.646.646 0 0 0-.165.818.856.856 0 0 0 .24.24c.105.07.23.133.377.192.15.059.318.114.505.164.267.078.513.173.737.285.224.112.416.245.577.4.163.152.288.327.376.525.091.195.136.412.136.653 0 .256-.052.485-.156.685a1.48 1.48 0 0 1-.424.504c-.182.137-.398.24-.65.313-.25.07-.524.104-.82.104a2.98 2.98 0 0 1-1.078-.204 2.329 2.329 0 0 1-.464-.26 1.809 1.809 0 0 1-.377-.365 1.733 1.733 0 0 1-.248-.473 1.843 1.843 0 0 1-.088-.585h1.105c.005.177.036.328.092.453a.82.82 0 0 0 .232.308.99.99 0 0 0 .361.177c.142.037.296.056.465.056.15 0 .281-.018.396-.052a.902.902 0 0 0 .297-.145.63.63 0 0 0 .184-.22.652.652 0 0 0 .064-.288Zm4.93-4.31-1.101 4.202-1.09-4.202h-1.241l1.762 5.832h1.146l1.766-5.832h-1.242Z" clip-rule="evenodd"/>
  <path fill="#fff" fill-opacity=".5" d="M21 7V3l6 6h-4a2 2 0 0 1-2-2Z"/>
</svg>
